svg/color/lnr.svg

<?xml version="1.0" encoding="UTF-8" ?>
<!DOCTYPE svg PUBLIC "-//W3C//DTD SVG 1.1//EN" "http://www.w3.org/Graphics/SVG/1.1/DTD/svg11.dtd">
<svg width="250pt" height="250pt" viewBox="0 0 250 250" version="1.1" xmlns="http://www.w3.org/2000/svg">
<g id="#ffffffff">
<path fill="#ffffff" opacity="1.00" d=" M 0.00 0.00 L 121.48 0.00 C 106.76 1.12 91.99 3.59 78.33 9.39 C 46.22 22.17 20.09 49.05 8.14 81.46 C 3.17 94.23 1.10 107.85 0.00 121.43 L 0.00 0.00 Z" />
<path fill="#ffffff" opacity="1.00" d=" M 130.47 0.00 L 250.00 0.00 L 250.00 115.48 C 248.15 95.26 241.80 75.39 230.80 58.27 C 216.04 34.92 193.30 16.68 167.24 7.49 C 155.45 3.10 142.93 1.27 130.47 0.00 Z" />
<path fill="#ffffff" opacity="1.00" d=" M 141.49 91.99 C 148.04 90.89 155.09 90.83 161.29 93.52 C 172.18 97.56 180.47 107.66 182.46 119.07 C 182.78 123.30 182.85 127.57 182.37 131.79 C 180.15 142.86 172.07 152.60 161.48 156.61 C 155.71 159.27 149.18 159.05 143.00 158.48 C 132.74 156.48 123.37 149.77 118.81 140.27 C 113.90 130.70 113.99 118.63 119.22 109.21 C 123.76 100.64 132.12 94.33 141.49 91.99 Z" />
<path fill="#ffffff" opacity="1.00" d=" M 74.23 114.91 C 78.43 113.50 83.66 113.87 86.93 117.16 C 91.85 121.63 91.67 130.29 86.44 134.45 C 83.38 137.31 78.86 137.14 75.00 136.53 C 70.29 134.97 66.75 130.04 67.38 125.00 C 67.12 120.59 70.38 116.68 74.23 114.91 Z" />
<path fill="#ffffff" opacity="1.00" d=" M 0.00 131.35 C 1.47 138.01 1.22 144.91 3.04 151.51 C 10.30 186.54 33.65 217.76 65.08 234.81 C 80.82 243.55 98.52 248.60 116.44 250.00 L 0.00 250.00 L 0.00 131.35 Z" />
<path fill="#ffffff" opacity="1.00" d=" M 242.47 168.75 C 246.29 159.26 247.84 149.12 250.00 139.19 L 250.00 250.00 L 134.54 250.00 C 163.12 247.71 190.98 235.65 211.56 215.57 C 225.28 202.61 235.86 186.41 242.47 168.75 Z" />
</g>
<g id="#000000ff">
<path fill="#000000" opacity="1.00" d=" M 121.48 0.00 L 130.47 0.00 C 142.93 1.27 155.45 3.10 167.24 7.49 C 193.30 16.68 216.04 34.92 230.80 58.27 C 241.80 75.39 248.15 95.26 250.00 115.48 L 250.00 139.19 C 247.84 149.12 246.29 159.26 242.47 168.75 C 235.86 186.41 225.28 202.61 211.56 215.57 C 190.98 235.65 163.12 247.71 134.54 250.00 L 116.44 250.00 C 98.52 248.60 80.82 243.55 65.08 234.81 C 33.65 217.76 10.30 186.54 3.04 151.51 C 1.22 144.91 1.47 138.01 0.00 131.35 L 0.00 121.43 C 1.10 107.85 3.17 94.23 8.14 81.46 C 20.09 49.05 46.22 22.17 78.33 9.39 C 91.99 3.59 106.76 1.12 121.48 0.00 M 141.49 91.99 C 132.12 94.33 123.76 100.64 119.22 109.21 C 113.99 118.63 113.90 130.70 118.81 140.27 C 123.37 149.77 132.74 156.48 143.00 158.48 C 149.18 159.05 155.71 159.27 161.48 156.61 C 172.07 152.60 180.15 142.86 182.37 131.79 C 182.85 127.57 182.78 123.30 182.46 119.07 C 180.47 107.66 172.18 97.56 161.29 93.52 C 155.09 90.83 148.04 90.89 141.49 91.99 M 74.23 114.91 C 70.38 116.68 67.12 120.59 67.38 125.00 C 66.75 130.04 70.29 134.97 75.00 136.53 C 78.86 137.14 83.38 137.31 86.44 134.45 C 91.67 130.29 91.85 121.63 86.93 117.16 C 83.66 113.87 78.43 113.50 74.23 114.91 Z" />
</g>
</svg>

<?xml version="1.0" encoding="utf-8"?>
<!-- Generator: Adobe Illustrator 26.0.3, SVG Export Plug-In . SVG Version: 6.00 Build 0)  -->
<svg version="1.1" id="Layer_1" xmlns="http://www.w3.org/2000/svg" xmlns:xlink="http://www.w3.org/1999/xlink" x="0px" y="0px"
	 viewBox="0 0 250 250" style="enable-background:new 0 0 250 250;" xml:space="preserve">
<style type="text/css">
	.st0{fill:#FFFFFF;}
</style>
<g id="_x23_ffffffff">
	<path class="st0" d="M141.5,92c6.5-1.1,13.6-1.2,19.8,1.5c10.9,4,19.2,14.1,21.2,25.6c0.3,4.2,0.4,8.5-0.1,12.7
		c-2.2,11.1-10.3,20.8-20.9,24.8c-5.8,2.7-12.3,2.4-18.5,1.9c-10.3-2-19.6-8.7-24.2-18.2c-4.9-9.6-4.8-21.6,0.4-31.1
		C123.8,100.6,132.1,94.3,141.5,92z"/>
	<path class="st0" d="M74.2,114.9c4.2-1.4,9.4-1,12.7,2.2c4.9,4.5,4.7,13.1-0.5,17.3c-3.1,2.9-7.6,2.7-11.4,2.1
		c-4.7-1.6-8.2-6.5-7.6-11.5C67.1,120.6,70.4,116.7,74.2,114.9z"/>
</g>
<g id="_x23_000000ff">
	<path d="M121.5,0h9c12.5,1.3,25,3.1,36.8,7.5c26.1,9.2,48.8,27.4,63.6,50.8c11,17.1,17.3,37,19.2,57.2v23.7
		c-2.2,9.9-3.7,20.1-7.5,29.6c-6.6,17.7-17.2,33.9-30.9,46.8c-20.6,20.1-48.4,32.1-77,34.4h-18.1c-17.9-1.4-35.6-6.4-51.4-15.2
		c-31.4-17.1-54.8-48.3-62-83.3c-1.8-6.6-1.6-13.5-3-20.2v-9.9c1.1-13.6,3.2-27.2,8.1-40C20.1,49,46.2,22.2,78.3,9.4
		C92,3.6,106.8,1.1,121.5,0 M141.5,92c-9.4,2.3-17.7,8.7-22.3,17.2c-5.2,9.4-5.3,21.5-0.4,31.1c4.6,9.5,13.9,16.2,24.2,18.2
		c6.2,0.6,12.7,0.8,18.5-1.9c10.6-4,18.7-13.8,20.9-24.8c0.5-4.2,0.4-8.5,0.1-12.7c-2-11.4-10.3-21.5-21.2-25.6
		C155.1,90.8,148,90.9,141.5,92 M74.2,114.9c-3.9,1.8-7.1,5.7-6.9,10.1c-0.6,5,2.9,10,7.6,11.5c3.9,0.6,8.4,0.8,11.4-2.1
		c5.2-4.2,5.4-12.8,0.5-17.3C83.7,113.9,78.4,113.5,74.2,114.9z"/>
</g>
</svg>
